!!!COM: stevie-wonder
!!!OTL: boogie-on-reggae-woman
!!!RNB: hooktheoryid: vANmpBYExyM
**kern	**text
*clefG2	*
*k[b-e-a-d-]	*
*M4/4	*
=1	=1
8r	Ab
8b	.
8b	.
8b	.
8b	.
8a-	.
8a-	.
8f	.
=2	=2
8r	Ab
8b	.
16r	.
16b	.
4.b-	.
8a-	.
[8f	.
=3	=3
8f]	Db
2..r	.
=4	=4
1r	Db
=5	=5
8r	Bb7
8b-	.
8b-	.
8b-	.
8b-	.
8a-	.
8a-	.
8f	.
=6	=6
4r	Eb7
8b	.
8a-	.
8.b-	.
8.b	.
[8a-	.
=7	=7
8a-]	Ab
2r	.
8.gg-	.
8.ff	.
=8	=8
4ee-	Ab
4.r	.
8.gg-	.
8.ff	.
=9	=9
1r	.
*-	*-